svg/emoji_u1f921.svg

<svg width="128" height="128" xmlns="http://www.w3.org/2000/svg"><path d="M63.81 22.62c-60.09 0-61.52 67.36-61.52 80.7 0 13.33 27.55 24.14 61.52 24.14 33.98 0 61.52-10.81 61.52-24.14-.01-13.33-1.43-80.7-61.52-80.7z" fill="#ffe6b3"/><path d="M102.49 101.65c-8.23 2.95-17.3-1.21-20.29-9.33-2.98-8.11 1.24-17.09 9.46-20.06 8.2-2.95 17.3 1.23 20.3 9.34 2.98 8.12-1.26 17.1-9.47 20.05z" fill="#fce8bb"/><path d="M102.27 101.05c-7.89 2.83-16.6-1.16-19.47-8.95-2.85-7.78 1.2-16.4 9.09-19.24 7.87-2.83 16.59 1.18 19.47 8.96 2.85 7.79-1.21 16.4-9.09 19.23z" fill="#fce4b8"/><path d="M102.05 100.45c-7.56 2.71-15.89-1.11-18.64-8.57-2.74-7.45 1.14-15.7 8.69-18.43 7.54-2.71 15.89 1.13 18.65 8.58 2.74 7.46-1.16 15.71-8.7 18.42z" fill="#fcdfb5"/><path d="M101.83 99.85c-7.22 2.59-15.19-1.06-17.81-8.19-2.62-7.12 1.09-15 8.31-17.61 7.2-2.59 15.18 1.08 17.82 8.2 2.61 7.13-1.11 15.02-8.32 17.6z" fill="#fcdbb3"/><path d="M101.61 99.25c-6.89 2.47-14.48-1.02-16.99-7.81-2.5-6.79 1.04-14.31 7.92-16.79 6.87-2.47 14.48 1.03 16.99 7.82 2.5 6.8-1.05 14.32-7.92 16.78z" fill="#fdd6b0"/><path d="M101.39 98.66c-6.55 2.35-13.78-.97-16.16-7.43-2.37-6.46.99-13.61 7.54-15.98 6.53-2.35 13.77.98 16.17 7.44 2.37 6.47-1.01 13.62-7.55 15.97z" fill="#fdd2ad"/><path d="M101.17 98.06c-6.22 2.23-13.08-.92-15.33-7.05s.94-12.92 7.15-15.16c6.2-2.23 13.07.93 15.34 7.06 2.25 6.13-.96 12.92-7.16 15.15z" fill="#fdcdaa"/><path d="M100.95 97.46c-5.88 2.11-12.37-.87-14.51-6.67-2.13-5.8.89-12.22 6.77-14.34 5.87-2.11 12.37.88 14.51 6.68 2.13 5.8-.9 12.22-6.77 14.33z" fill="#fdc9a7"/><path d="M100.73 96.86c-5.55 1.99-11.67-.82-13.68-6.29s.84-11.52 6.38-13.53c5.53-1.99 11.66.83 13.69 6.3 2 5.48-.85 11.53-6.39 13.52z" fill="#fdc4a5"/><path d="M100.51 96.26c-5.21 1.87-10.96-.77-12.86-5.91-1.89-5.14.79-10.83 6-12.71 5.2-1.87 10.96.78 12.86 5.92 1.89 5.14-.8 10.84-6 12.7z" fill="#fdc0a2"/><path d="M100.29 95.66c-4.88 1.75-10.26-.72-12.03-5.53-1.77-4.81.74-10.13 5.61-11.89 4.86-1.75 10.25.73 12.03 5.54 1.77 4.81-.74 10.14-5.61 11.88z" fill="#fdbb9f"/><path d="M100.07 95.07c-4.54 1.63-9.55-.67-11.2-5.15-1.65-4.48.69-9.44 5.22-11.08 4.53-1.63 9.55.68 11.21 5.16 1.64 4.48-.7 9.44-5.23 11.07z" fill="#feb79c"/><path d="M99.85 94.47c-4.21 1.51-8.85-.62-10.38-4.77-1.53-4.15.64-8.74 4.84-10.26 4.2-1.51 8.85.63 10.38 4.78 1.53 4.15-.64 8.74-4.84 10.25z" fill="#feb299"/><path d="M99.63 93.87c-3.87 1.39-8.15-.57-9.55-4.39-1.4-3.82.58-8.04 4.45-9.44 3.86-1.39 8.14.58 9.56 4.4 1.4 3.81-.6 8.04-4.46 9.43z" fill="#feae96"/><path d="M99.41 93.27c-3.54 1.27-7.44-.52-8.73-4.01-1.28-3.49.53-7.35 4.07-8.63 3.53-1.27 7.44.53 8.73 4.02 1.28 3.49-.54 7.35-4.07 8.62z" fill="#fea994"/><path d="M99.19 92.67c-3.2 1.15-6.74-.47-7.9-3.63-1.16-3.16.48-6.65 3.68-7.81 3.19-1.15 6.73.48 7.9 3.64 1.16 3.16-.49 6.65-3.68 7.8z" fill="#fea591"/><path d="M98.97 92.07c-2.87 1.03-6.03-.43-7.07-3.25-1.04-2.83.43-5.96 3.3-6.99 2.86-1.03 6.03.43 7.08 3.26 1.03 2.83-.45 5.96-3.31 6.98z" fill="#fea08e"/><path d="M98.75 91.48c-2.53.91-5.33-.38-6.25-2.87-.92-2.5.38-5.26 2.91-6.18 2.53-.91 5.32.38 6.25 2.88.92 2.49-.39 5.26-2.91 6.17z" fill="#fe9c8b"/><path d="M98.53 90.88c-2.2.79-4.62-.33-5.42-2.49-.8-2.17.33-4.57 2.53-5.36 2.19-.79 4.62.33 5.42 2.5.79 2.16-.34 4.56-2.53 5.35z" fill="#ff9788"/><path d="M98.31 90.28c-1.86.67-3.92-.28-4.59-2.11-.68-1.84.28-3.87 2.14-4.54 1.86-.67 3.92.28 4.6 2.12.67 1.83-.29 3.86-2.15 4.53z" fill="#ff9386"/><path d="M98.09 89.68c-1.53.55-3.21-.23-3.77-1.73-.55-1.51.23-3.17 1.76-3.73 1.52-.55 3.21.23 3.77 1.74.55 1.5-.24 3.17-1.76 3.72z" fill="#ff8e83"/><path d="M97.87 89.08c-1.19.43-2.51-.18-2.94-1.35-.43-1.18.18-2.48 1.37-2.91 1.19-.43 2.51.18 2.94 1.35.43 1.18-.18 2.48-1.37 2.91z" fill="#ff8a80"/><g><path d="M35.94 102.41c-8.23 2.95-17.3-1.21-20.29-9.33-2.98-8.11 1.24-17.09 9.46-20.06 8.2-2.95 17.3 1.23 20.3 9.34 2.98 8.12-1.26 17.1-9.47 20.05z" fill="#fce8bb"/><path d="M35.72 101.81c-7.89 2.83-16.6-1.16-19.47-8.95-2.86-7.78 1.19-16.4 9.08-19.24 7.87-2.83 16.59 1.18 19.47 8.96 2.86 7.79-1.21 16.4-9.08 19.23z" fill="#fce4b8"/><path d="M35.5 101.21c-7.56 2.71-15.89-1.11-18.64-8.57-2.74-7.45 1.14-15.7 8.69-18.43 7.54-2.71 15.89 1.13 18.65 8.58 2.73 7.46-1.16 15.71-8.7 18.42z" fill="#fcdfb5"/><path d="M35.28 100.61c-7.22 2.59-15.19-1.07-17.81-8.19-2.62-7.12 1.09-15.01 8.31-17.61 7.2-2.59 15.18 1.08 17.82 8.2 2.61 7.13-1.12 15.02-8.32 17.6z" fill="#fcdbb3"/><path d="M35.06 100.01c-6.89 2.47-14.49-1.02-16.99-7.81-2.5-6.79 1.04-14.31 7.92-16.79 6.87-2.47 14.48 1.03 16.99 7.82 2.5 6.8-1.05 14.32-7.92 16.78z" fill="#fdd6b0"/><path d="M34.84 99.42c-6.55 2.35-13.78-.97-16.16-7.43-2.37-6.46.99-13.61 7.54-15.98 6.53-2.35 13.77.98 16.17 7.44 2.36 6.47-1.01 13.62-7.55 15.97z" fill="#fdd2ad"/><path d="M34.62 98.82c-6.22 2.23-13.08-.92-15.33-7.05s.94-12.92 7.15-15.16c6.2-2.23 13.07.93 15.34 7.06 2.24 6.13-.96 12.92-7.16 15.15z" fill="#fdcdaa"/><path d="M34.4 98.22c-5.88 2.11-12.37-.87-14.51-6.67-2.13-5.8.89-12.22 6.77-14.34 5.87-2.11 12.37.88 14.51 6.68 2.13 5.8-.9 12.22-6.77 14.33z" fill="#fdc9a7"/><path d="M34.18 97.62c-5.55 1.99-11.67-.82-13.68-6.29s.84-11.53 6.38-13.53c5.53-1.99 11.66.83 13.69 6.3 2 5.48-.86 11.53-6.39 13.52z" fill="#fdc4a5"/><path d="M33.96 97.02c-5.21 1.87-10.96-.77-12.86-5.91-1.89-5.14.79-10.83 6-12.71 5.2-1.87 10.96.78 12.86 5.92 1.88 5.15-.8 10.84-6 12.7z" fill="#fdc0a2"/><path d="M33.74 96.43c-4.88 1.75-10.26-.72-12.03-5.53-1.77-4.81.74-10.13 5.61-11.89 4.86-1.75 10.25.73 12.03 5.54 1.77 4.8-.75 10.13-5.61 11.88z" fill="#fdbb9f"/><path d="M33.52 95.83c-4.54 1.63-9.55-.67-11.2-5.15-1.65-4.48.68-9.44 5.22-11.08 4.53-1.63 9.55.68 11.21 5.16 1.64 4.48-.7 9.44-5.23 11.07z" fill="#feb79c"/><path d="M33.3 95.23c-4.21 1.51-8.85-.62-10.38-4.77-1.53-4.15.63-8.74 4.84-10.26 4.2-1.51 8.85.63 10.38 4.78 1.52 4.15-.65 8.74-4.84 10.25z" fill="#feb299"/><path d="M33.08 94.63c-3.87 1.39-8.15-.57-9.55-4.39-1.4-3.82.58-8.05 4.45-9.44 3.86-1.39 8.14.58 9.56 4.4 1.39 3.82-.6 8.04-4.46 9.43z" fill="#feae96"/><path d="M32.86 94.03c-3.54 1.27-7.44-.52-8.72-4.01-1.28-3.49.53-7.35 4.07-8.63 3.53-1.27 7.44.53 8.73 4.02 1.27 3.49-.56 7.35-4.08 8.62z" fill="#fea994"/><path d="M32.63 93.43c-3.2 1.15-6.74-.47-7.9-3.63-1.16-3.16.48-6.66 3.68-7.81 3.19-1.15 6.73.48 7.9 3.64s-.48 6.66-3.68 7.8z" fill="#fea591"/><path d="M32.41 92.84c-2.87 1.03-6.03-.42-7.07-3.25s.43-5.96 3.3-6.99c2.86-1.03 6.03.43 7.08 3.26 1.03 2.82-.44 5.95-3.31 6.98z" fill="#fea08e"/><path d="M32.19 92.24c-2.53.91-5.33-.38-6.25-2.87-.92-2.5.38-5.26 2.91-6.18 2.53-.91 5.32.38 6.25 2.88.93 2.49-.38 5.26-2.91 6.17z" fill="#fe9c8b"/><path d="M31.97 91.64c-2.2.79-4.62-.33-5.42-2.49-.8-2.17.33-4.57 2.53-5.36 2.19-.79 4.62.33 5.42 2.5.8 2.16-.33 4.56-2.53 5.35z" fill="#ff9788"/><path d="M31.75 91.04c-1.86.67-3.92-.28-4.59-2.11-.68-1.84.28-3.87 2.14-4.54 1.86-.67 3.92.28 4.6 2.11.67 1.84-.29 3.87-2.15 4.54z" fill="#ff9386"/><path d="M31.53 90.44c-1.53.55-3.21-.23-3.77-1.73-.56-1.51.23-3.18 1.76-3.73 1.52-.55 3.21.23 3.77 1.73.56 1.52-.23 3.18-1.76 3.73z" fill="#ff8e83"/><path d="M31.31 89.85c-1.19.42-2.51-.18-2.94-1.35-.43-1.18.18-2.48 1.37-2.91 1.19-.43 2.51.18 2.94 1.35.44 1.17-.18 2.48-1.37 2.91z" fill="#ff8a80"/></g><g><ellipse cx="86.59" cy="66.61" rx="11.79" ry="12.6" fill="#fff"/><ellipse cx="41" cy="66.61" rx="11.79" ry="12.6" fill="#fff"/><path d="M41.06 73.32c-3.12.03-5.67-2.81-5.71-6.34-.03-3.54 2.47-6.43 5.58-6.45 3.11-.03 5.67 2.81 5.71 6.36.03 3.52-2.47 6.4-5.58 6.43zM86.61 73.32c3.11 0 5.64-2.87 5.63-6.4-.01-3.54-2.54-6.4-5.66-6.39-3.12.01-5.65 2.87-5.64 6.42.01 3.52 2.55 6.38 5.67 6.37z" fill="#2f2f2f"/></g><circle cx="63.81" cy="81.08" r="9.77" fill="#db4437"/><path d="M63.86 110.87c-8.79 0-16.66-2.88-22.12-7.31-3.36-2.73-5.51-4.56-6.53-8.31-.91-3.33 2.05-6.85 7.28-2.05 2.1 1.93 8.79 7.89 21.37 7.89s19.26-5.97 21.37-7.89c5.23-4.8 8.19-1.28 7.28 2.05-1.03 3.75-3.17 5.57-6.53 8.31-5.46 4.43-13.33 7.31-22.12 7.31z" fill="#421503" stroke="#db4437" stroke-width="7.286" stroke-miterlimit="10"/><g fill="#3890f9"><circle cx="15.84" cy="53.2" r="10.8"/><circle cx="12.4" cy="46.15" r="11.18"/><circle cx="18.56" cy="37.77" r="13.08"/><circle cx="28.76" cy="44.47" r="10.8"/><circle cx="23.58" cy="36.93" r="11.85"/><circle cx="29.76" cy="24.79" r="13.08"/><circle cx="44.23" cy="39.05" r="10.8"/><circle cx="40.02" cy="26.51" r="11.85"/><circle cx="46.7" cy="16.48" r="13.08"/><circle cx="112.21" cy="53.2" r="10.8"/><circle cx="115.39" cy="46.12" r="11.16"/><circle cx="109.49" cy="37.77" r="13.08"/><circle cx="99.28" cy="44.47" r="10.8"/><circle cx="104.46" cy="36.93" r="11.85"/><circle cx="98.29" cy="24.79" r="13.08"/><circle cx="83.82" cy="39.05" r="10.8"/><circle cx="88.03" cy="26.51" r="11.85"/><circle cx="81.34" cy="16.48" r="13.08"/><circle cx="64.44" cy="13.62" r="13.08"/><circle cx="64.44" cy="27.19" r="16.12"/><circle cx="64.44" cy="35.16" r="12.64"/></g></svg>

<?xml version="1.0" encoding="UTF-8" standalone="no"?>
<!DOCTYPE svg PUBLIC "-//W3C//DTD SVG 1.1//EN" "http://www.w3.org/Graphics/SVG/1.1/DTD/svg11.dtd">
<svg width="100%" height="100%" viewBox="0 0 128 128" version="1.1" xmlns="http://www.w3.org/2000/svg" xmlns:xlink="http://www.w3.org/1999/xlink" xml:space="preserve" xmlns:serif="http://www.serif.com/" style="fill-rule:evenodd;clip-rule:evenodd;stroke-miterlimit:10;">
    <path d="M63.81,22.62C3.72,22.62 2.29,89.98 2.29,103.32C2.29,116.65 29.84,127.46 63.81,127.46C97.79,127.46 125.33,116.65 125.33,103.32C125.32,89.99 123.9,22.62 63.81,22.62Z" style="fill:rgb(255,204,128);fill-rule:nonzero;"/>
    <path d="M102.49,101.65C94.26,104.6 85.19,100.44 82.2,92.32C79.22,84.21 83.44,75.23 91.66,72.26C99.86,69.31 108.96,73.49 111.96,81.6C114.94,89.72 110.7,98.7 102.49,101.65Z" style="fill:url(#_Radial1);fill-rule:nonzero;"/>
    <path d="M35.94,102.41C27.71,105.36 18.64,101.2 15.65,93.08C12.67,84.97 16.89,75.99 25.11,73.02C33.31,70.07 42.41,74.25 45.41,82.36C48.39,90.48 44.15,99.46 35.94,102.41Z" style="fill:url(#_Radial2);fill-rule:nonzero;"/>
    <g>
        <ellipse cx="86.59" cy="66.61" rx="11.79" ry="12.6" style="fill:white;"/>
        <ellipse cx="41" cy="66.61" rx="11.79" ry="12.6" style="fill:white;"/>
        <path d="M41.06,73.32C37.94,73.35 35.39,70.51 35.35,66.98C35.32,63.44 37.82,60.55 40.93,60.53C44.04,60.5 46.6,63.34 46.64,66.89C46.67,70.41 44.17,73.29 41.06,73.32ZM86.61,73.32C89.72,73.32 92.25,70.45 92.24,66.92C92.23,63.38 89.7,60.52 86.58,60.53C83.46,60.54 80.93,63.4 80.94,66.95C80.95,70.47 83.49,73.33 86.61,73.32Z" style="fill:rgb(47,47,47);fill-rule:nonzero;"/>
    </g>
    <circle cx="63.81" cy="81.08" r="9.77" style="fill:rgb(219,68,55);"/>
    <path d="M63.86,110.87C55.07,110.87 47.2,107.99 41.74,103.56C38.38,100.83 36.23,99 35.21,95.25C34.3,91.92 37.26,88.4 42.49,93.2C44.59,95.13 51.28,101.09 63.86,101.09C76.44,101.09 83.12,95.12 85.23,93.2C90.46,88.4 93.42,91.92 92.51,95.25C91.48,99 89.34,100.82 85.98,103.56C80.52,107.99 72.65,110.87 63.86,110.87Z" style="fill:rgb(66,21,3);fill-rule:nonzero;stroke:rgb(219,68,55);stroke-width:7.29px;"/>
    <g>
        <circle cx="15.84" cy="53.2" r="10.8" style="fill:rgb(30,157,219);"/>
        <circle cx="12.4" cy="46.15" r="11.18" style="fill:rgb(30,157,219);"/>
        <circle cx="18.56" cy="37.77" r="13.08" style="fill:rgb(30,157,219);"/>
        <circle cx="28.76" cy="44.47" r="10.8" style="fill:rgb(30,157,219);"/>
        <circle cx="23.58" cy="36.93" r="11.85" style="fill:rgb(30,157,219);"/>
        <circle cx="29.76" cy="24.79" r="13.08" style="fill:rgb(30,157,219);"/>
        <circle cx="44.23" cy="39.05" r="10.8" style="fill:rgb(30,157,219);"/>
        <circle cx="40.02" cy="26.51" r="11.85" style="fill:rgb(30,157,219);"/>
        <circle cx="46.7" cy="16.48" r="13.08" style="fill:rgb(30,157,219);"/>
        <circle cx="112.21" cy="53.2" r="10.8" style="fill:rgb(30,157,219);"/>
        <circle cx="115.39" cy="46.12" r="11.16" style="fill:rgb(30,157,219);"/>
        <circle cx="109.49" cy="37.77" r="13.08" style="fill:rgb(30,157,219);"/>
        <circle cx="99.28" cy="44.47" r="10.8" style="fill:rgb(30,157,219);"/>
        <circle cx="104.46" cy="36.93" r="11.85" style="fill:rgb(30,157,219);"/>
        <circle cx="98.29" cy="24.79" r="13.08" style="fill:rgb(30,157,219);"/>
        <circle cx="83.82" cy="39.05" r="10.8" style="fill:rgb(30,157,219);"/>
        <circle cx="88.03" cy="26.51" r="11.85" style="fill:rgb(30,157,219);"/>
        <circle cx="81.34" cy="16.48" r="13.08" style="fill:rgb(30,157,219);"/>
        <circle cx="64.44" cy="13.62" r="13.08" style="fill:rgb(30,157,219);"/>
        <circle cx="64.44" cy="27.19" r="16.12" style="fill:rgb(30,157,219);"/>
        <g transform="matrix(1,0,0,1,-0.44,0)">
            <circle cx="64.44" cy="35.16" r="12.64" style="fill:rgb(30,157,219);"/>
        </g>
    </g>
    <defs>
        <radialGradient id="_Radial1" cx="0" cy="0" r="1" gradientUnits="userSpaceOnUse" gradientTransform="matrix(15.8344,0,0,15.6421,97.0788,86.9562)"><stop offset="0" style="stop-color:rgb(227,95,92);stop-opacity:1"/><stop offset="1" style="stop-color:rgb(227,95,92);stop-opacity:0"/></radialGradient>
        <radialGradient id="_Radial2" cx="0" cy="0" r="1" gradientUnits="userSpaceOnUse" gradientTransform="matrix(15.8344,0,0,15.6421,30.5288,87.7162)"><stop offset="0" style="stop-color:rgb(227,95,92);stop-opacity:1"/><stop offset="1" style="stop-color:rgb(227,95,92);stop-opacity:0"/></radialGradient>
    </defs>
</svg>
